assets/libreofficemath/mono.svg

<svg viewBox="0 0 24 24" xmlns="http://www.w3.org/2000/svg"><path d="m22 0v7l-7-7zm-9 0 9 9v12c0 1.662-1.338 3-3 3h-14c-1.662 0-3-1.338-3-3v-18c0-1.662 1.338-3 3-3zm-5 17h-2v1h2zm5 0h-2v1h2zm2.293-1.293a1 1 0 0 0 1.414-1.414l-.793-.793.793-.793a1 1 0 0 0 -1.414-1.414l-.793.793-.793-.793a1 1 0 1 0 -1.414 1.414l.793.793-.793.793a1 1 0 0 0 1.414 1.414l.793-.793zm2.707 1.293h-2v1h2zm0-8h-8.138l-1.862 4.653-.662-1.653h-1.338v1h.662l1.338 3.347 2.539-6.347h7.461z"/></svg>

<svg xmlns="http://www.w3.org/2000/svg" viewBox="0 0 24 24"><path d="M22 0v7l-7-7zm-9 0 9 9v12c0 1.662-1.338 3-3 3H5c-1.662 0-3-1.338-3-3V3c0-1.662 1.338-3 3-3zM8 17H6v1h2zm5 0h-2v1h2zm2.293-1.293a1 1 0 0 0 1.414-1.414l-.793-.793.793-.793a1 1 0 0 0-1.414-1.414l-.793.793-.793-.793a1 1 0 1 0-1.414 1.414l.793.793-.793.793a1 1 0 0 0 1.414 1.414l.793-.793zM18 17h-2v1h2zm0-8H9.862L8 13.653 7.338 12H6v1h.662L8 16.347 10.539 10H18z"/></svg>
